svg/24/pen-tool.svg

<svg width="24" height="24" viewBox="0 0 24 24" fill="currentColor" xmlns="http://www.w3.org/2000/svg"><path fill-rule="evenodd" clip-rule="evenodd" d="M6.3432 17.657C8.56991 19.8838 11.7827 20.5234 14.5759 19.576L16.0857 21.0858C16.8668 21.8669 18.1331 21.8669 18.9142 21.0859L21.0857 18.9143C21.8668 18.1332 21.8668 16.8669 21.0857 16.0859L19.5759 14.576C20.5233 11.7828 19.8836 8.57004 17.6569 6.34333C15.2122 3.89865 8.23869 2.97421 4.6665 2.65388C3.49994 2.54927 2.54915 3.50007 2.65376 4.66662C2.97409 8.23882 3.89853 15.2124 6.3432 17.657ZM18.1554 14.0942C17.972 14.635 18.1115 15.2329 18.5153 15.6367L20.0251 17.1465C20.2203 17.3418 20.2203 17.6584 20.0251 17.8536L17.8535 20.0252C17.6582 20.2205 17.3417 20.2205 17.1464 20.0252L15.6366 18.5154C15.2328 18.1116 14.6349 17.9721 14.0941 18.1555C11.8208 18.9266 9.2115 18.404 7.40386 16.5964C6.99172 16.1842 6.5674 15.4947 6.16665 14.5252C5.77322 13.5735 5.44057 12.4465 5.16333 11.2469C4.68317 9.16928 4.39113 6.97168 4.21923 5.27989L10.1583 11.2189C10.0564 11.4589 10 11.7229 10 12C10 13.1046 10.8954 14 12 14C13.1046 14 14 13.1046 14 12C14 10.8954 13.1046 10 12 10C11.7229 10 11.4589 10.0564 11.2189 10.1583L5.28004 4.21938C6.97179 4.39128 9.16926 4.68332 11.2468 5.16345C12.4464 5.44069 13.5734 5.77335 14.5251 6.16677C15.4945 6.56753 16.1841 6.99185 16.5962 7.40399C18.4039 9.21163 18.9264 11.8209 18.1554 14.0942Z"/></svg>

<svg xmlns="http://www.w3.org/2000/svg" width="24" height="24" fill="currentColor" viewBox="0 0 24 24">
  <path fill-rule="evenodd" d="M6.343 17.657a8 8 0 0 0 8.233 1.919l1.51 1.51a2 2 0 0 0 2.828 0l2.172-2.172a2 2 0 0 0 0-2.828l-1.51-1.51a8 8 0 0 0-1.919-8.233C15.212 3.9 8.239 2.974 4.667 2.653a1.84 1.84 0 0 0-2.013 2.014c.32 3.572 1.245 10.545 3.69 12.99Zm11.813-3.563a1.5 1.5 0 0 0 .36 1.543l1.51 1.51a.5.5 0 0 1 0 .707l-2.172 2.171a.5.5 0 0 1-.707 0l-1.51-1.51a1.5 1.5 0 0 0-1.543-.36 6.5 6.5 0 0 1-6.69-1.559c-.412-.412-.836-1.101-1.237-2.07-.394-.953-.726-2.08-1.004-3.28-.48-2.077-.772-4.274-.944-5.966l5.94 5.939a2 2 0 1 0 1.06-1.06L5.28 4.218c1.692.172 3.89.464 5.967.944 1.2.278 2.326.61 3.278 1.004.97.4 1.66.825 2.071 1.237a6.5 6.5 0 0 1 1.56 6.69Z" clip-rule="evenodd"/>
</svg>
